X:1
T:Tune n. 18
T:Tune n. 18
T:from "A Favorite Collection of Irish Tunes"
T:Turlough O`Carolan (1670 - 1738)
C:Turlough O`Carolan (1670 - 1738)
%%score { 1 | 2 }
L:1/8
M:6/8
K:C
V:1 treble nm="Piano" snm="Pno."
V:2 bass 
V:1
 c2 G cde | f2 e d2 c |{c} B2 A GBG | B2 c d2 f | edc egg | a2 d Td2 c | TB2 A GcB | c3 c3 :: %8
 ge/f/g ge/f/g | cec cec | af/g/a af/g/a | dfd dfd | efg abc' | bc'd' gag | e2 c ded | c3 c3 :| %16
V:2
 C,3 E,2 C, | D,2 E, F,2 D, | G,3 G,,3 | D2 C B,2 G, | C3 C,3 | F,3 F,,3 | G,3 G,,3 | C,3 C,3 :: %8
 C3 G,3 | E,3 C,3 | F,3 F,,3 | F,3 D,3 | C3 F,3 | G,3 B,3 | C2 E, F,2 G, | C,3 C,3 :| %16

